public/brand/detecta-default.svg

<svg width="487" height="120" viewBox="0 0 487 120" fill="none" xmlns="http://www.w3.org/2000/svg">
<g clip-path="url(#clip0_2612_114)">
<path d="M192.103 16.8025H211.272C221.245 16.8025 229.051 19.4752 234.696 24.8207C240.338 30.1662 243.161 37.5595 243.161 46.9969C243.161 53.2684 241.802 58.6892 239.085 63.2592C236.367 67.8295 232.547 71.3075 227.62 73.6977C222.694 76.0885 216.947 77.282 210.379 77.282H192.107V16.8062L192.103 16.8025ZM206.168 28.8072V65.2731H211.275C216.887 65.2731 221.203 63.7034 224.218 60.5676C227.233 57.4319 228.742 52.9372 228.742 47.0835C228.742 41.2298 227.293 36.5732 224.399 33.4638C221.501 30.3582 217.278 28.8035 211.723 28.8035H206.168V28.8072Z" fill="#1961AC"/>
<path d="M271.449 78.4413C263.805 78.4413 257.831 76.2616 253.533 71.9023C249.235 67.543 247.087 61.5087 247.087 53.8029C247.087 48.8452 248.042 44.5161 249.954 40.8119C251.866 37.1078 254.493 34.2732 257.835 32.3006C261.178 30.3281 265.001 29.3456 269.3 29.3456C275.57 29.3456 280.496 31.4047 284.079 35.5268C287.662 39.6488 289.454 45.3217 289.454 52.5494V58.373H260.252C261.626 64.7047 265.984 67.8708 273.33 67.8708C277.568 67.8708 281.961 66.8275 286.496 64.7348V75.219C282.017 77.3685 277 78.4446 271.449 78.4446V78.4413ZM268.671 39.4681C263.774 39.4681 260.906 42.7544 260.071 49.3233H276.909C276.789 46.1574 276.014 43.7219 274.58 42.0203C273.146 40.3188 271.178 39.4681 268.667 39.4681H268.671Z" fill="#1961AC"/>
<path d="M315.224 78.1738C309.728 78.1738 305.577 76.7548 302.773 73.92C299.966 71.0852 298.562 66.8577 298.562 61.2415V40.9024H291.396V30.5088H298.562V18.3233H312.179V30.5088H322.032V40.9024H312.179V59.9842C312.179 62.4913 312.686 64.3434 313.703 65.5405C314.719 66.7377 316.3 67.3325 318.449 67.3325C320.12 67.3325 321.675 67.0348 323.108 66.4367V76.92C320.241 77.7561 317.614 78.1738 315.227 78.1738H315.224Z" fill="#1961AC"/>
<path d="M350.176 78.4413C342.533 78.4413 336.56 76.2616 332.262 71.9023C327.963 67.543 325.811 61.5087 325.811 53.8029C325.811 48.8452 326.767 44.5161 328.679 40.8119C330.591 37.1078 333.218 34.2732 336.56 32.3006C339.902 30.3281 343.726 29.3456 348.024 29.3456C354.295 29.3456 359.221 31.4047 362.804 35.5268C366.387 39.6488 368.178 45.3217 368.178 52.5494V58.373H338.976C340.35 64.7047 344.708 67.8708 352.054 67.8708C356.293 67.8708 360.685 66.8275 365.224 64.7348V75.219C360.745 77.3685 355.728 78.4446 350.176 78.4446V78.4413ZM347.399 39.4681C342.502 39.4681 339.635 42.7544 338.799 49.3233H355.638C355.517 46.1574 354.742 43.7219 353.308 42.0203C351.874 40.3188 349.906 39.4681 347.395 39.4681H347.399Z" fill="#1961AC"/>
<path d="M395.491 78.4413C390.595 78.4413 386.368 77.4249 382.815 75.3954C379.262 73.3666 376.545 70.5134 374.663 66.8393C372.781 63.1651 371.841 58.8812 371.841 53.9837C371.841 49.0862 372.883 44.6818 374.976 40.9475C377.064 37.2132 379.932 34.3485 383.576 32.3458C387.218 30.3469 391.336 29.3456 395.935 29.3456C400.233 29.3456 403.937 30.1511 407.042 31.766V42.7845C404.174 41.1734 401.039 40.364 397.637 40.364C393.933 40.364 391.008 41.546 388.86 43.9026C386.711 46.2629 385.634 49.5643 385.634 53.8029C385.634 58.0417 386.722 61.298 388.905 63.7486C391.084 66.1993 394.024 67.423 397.726 67.423C401.43 67.423 404.772 66.5567 407.58 64.8252V75.7574C404.178 77.5489 400.147 78.4446 395.487 78.4446L395.491 78.4413Z" fill="#1961AC"/>
<path d="M434.502 78.1738C429.006 78.1738 424.855 76.7548 422.051 73.92C419.243 71.0852 417.84 66.8577 417.84 61.2415V40.9024H410.673V30.5088H417.84V18.3233H431.456V30.5088H441.31V40.9024H431.456V59.9842C431.456 62.4913 431.965 64.3434 432.981 65.5405C433.997 66.7377 435.578 67.3325 437.727 67.3325C439.398 67.3325 440.952 67.0348 442.386 66.4367V76.92C439.519 77.7561 436.891 78.1738 434.505 78.1738H434.502Z" fill="#1961AC"/>
<path d="M461.355 78.4413C456.696 78.4413 452.981 77.1875 450.203 74.6767C447.426 72.1698 446.037 68.8531 446.037 64.731C446.037 59.4157 448.096 55.2786 452.217 52.3235C456.338 49.3684 462.161 47.889 469.684 47.889C470.339 47.889 470.998 47.9041 471.656 47.9342C472.311 47.9643 472.97 48.0094 473.629 48.0697C473.327 45.3819 472.36 43.398 470.719 42.1106C469.075 40.8269 466.673 40.1832 463.508 40.1832C459.149 40.1832 454.731 41.3464 450.252 43.6766V33.0158C455.029 30.5689 460.196 29.3417 465.748 29.3417C472.375 29.3417 477.494 31.1035 481.111 34.6269C484.724 38.1504 486.53 43.1986 486.53 49.7675V77.2741H475.424L474.709 72.3462C473.335 74.259 471.468 75.7495 469.108 76.8262C466.749 77.9029 464.167 78.4374 461.359 78.4374L461.355 78.4413ZM465.386 69.1239C467.716 69.1239 469.684 68.2885 471.299 66.617C472.91 64.9456 473.719 62.8864 473.719 60.4358V56.4945C473.18 56.4342 472.628 56.4041 472.063 56.4041H470.317C466.673 56.4041 463.85 56.9876 461.852 58.1508C459.85 59.314 458.852 60.9742 458.852 63.1236C458.852 64.9757 459.447 66.44 460.644 67.5128C461.837 68.5895 463.422 69.1239 465.39 69.1239H465.386Z" fill="#1961AC"/>
<path d="M98.3121 54.985C92.4334 49.105 92.4334 44.8926 98.3121 39.0126L132.908 4.41002C127.029 -1.47001 117.496 -1.47001 111.617 4.41002L79.6826 36.3511C73.8032 42.2311 73.8032 51.7664 79.6826 57.6464L111.617 89.5875C117.496 95.4675 127.029 95.4675 132.908 89.5875L98.3121 54.985Z" fill="#BAD0E6"/>
<path d="M146.216 39.0126C152.095 44.8926 152.095 49.105 146.216 54.985L111.621 89.5875C117.5 95.4675 127.033 95.4675 132.912 89.5875L164.847 57.6464C170.725 51.7664 170.725 42.2311 164.847 36.3511L132.912 4.41002C127.033 -1.47001 117.5 -1.47001 111.621 4.41002L146.216 39.0126Z" fill="#1961AC"/>
<path d="M60.6759 54.985C54.797 49.105 54.797 44.8926 60.6759 39.0126L95.2715 4.41002C89.3928 -1.47001 79.859 -1.47001 73.9803 4.41002L42.0457 36.3511C36.1669 42.2311 36.1669 51.7664 42.0457 57.6464L73.9803 89.5875C79.859 95.4675 89.3928 95.4675 95.2715 89.5875L60.6759 54.985Z" fill="#F9CFCD"/>
<path d="M108.58 39.0126C114.458 44.8926 114.458 49.105 108.58 54.985L73.9843 89.5875C79.8629 95.4675 89.3961 95.4675 95.2754 89.5875L127.21 57.6464C133.089 51.7664 133.089 42.2311 127.21 36.3511L95.2754 4.41002C89.3961 -1.47001 79.8629 -1.47001 73.9843 4.41002L108.58 39.0126Z" fill="#EB5E57"/>
<path d="M23.0393 54.985C17.1604 49.105 17.1604 44.8926 23.0393 39.0126L57.6348 4.41002C51.756 -1.47001 42.2226 -1.47001 36.3438 4.41002L4.40913 36.3511C-1.46971 42.2311 -1.46971 51.7664 4.40913 57.6464L36.3438 89.5875C42.2226 95.4675 51.756 95.4675 57.6348 89.5875L23.0393 54.985Z" fill="#F18E89"/>
<path d="M70.9429 39.0126C76.8216 44.8926 76.8216 49.105 70.9429 54.985L36.3475 89.5875C42.2264 95.4675 51.7597 95.4675 57.6386 89.5875L89.5731 57.6464C95.4518 51.7664 95.4518 42.2311 89.5731 36.3511L57.6386 4.41002C51.7597 -1.47001 42.2264 -1.47001 36.3475 4.41002L70.9429 39.0126Z" fill="#D3242D"/>
<path d="M407.9 93.7849H410.196L419.53 119.195H417.234L414.562 111.741H403.496L400.862 119.195H398.604L407.9 93.7849ZM404.174 109.822H413.884L409.029 96.1187L404.174 109.822Z" fill="#1961AC"/>
<path d="M422.431 91.1495H424.614V119.195H422.431V91.1495Z" fill="#1961AC"/>
<path d="M437.001 119.684C434.317 119.684 432.191 118.769 430.621 116.936C429.052 115.103 428.269 112.618 428.269 109.483C428.269 107.424 428.615 105.635 429.304 104.118C429.993 102.601 430.952 101.438 432.183 100.636C433.414 99.8341 434.829 99.4315 436.436 99.4315C438.743 99.4315 440.557 100.26 441.875 101.916C443.192 103.572 443.85 105.857 443.85 108.767V110.085H430.414C430.538 112.468 431.193 114.331 432.371 115.675C433.549 117.019 435.157 117.689 437.189 117.689C439.221 117.689 441.114 117.113 442.721 115.957V118.028C441.092 119.13 439.184 119.684 437.001 119.684ZM436.323 101.351C434.592 101.351 433.218 101.953 432.202 103.158C431.186 104.363 430.603 106.068 430.452 108.278H441.78C441.732 106.094 441.227 104.393 440.275 103.177C439.323 101.961 438.005 101.351 436.323 101.351Z" fill="#1961AC"/>
<path d="M447.287 99.9207H449.206L449.357 102.894C449.809 101.841 450.467 101.02 451.333 100.429C452.198 99.838 453.169 99.5443 454.249 99.5443C454.9 99.5443 455.48 99.6308 455.981 99.8079V101.803C455.48 101.626 454.889 101.54 454.212 101.54C452.782 101.54 451.634 102.119 450.768 103.271C449.902 104.427 449.47 105.955 449.47 107.864V119.195H447.287V99.9207Z" fill="#1961AC"/>
<path d="M466.101 119.571C464.472 119.571 463.234 119.089 462.394 118.122C461.555 117.155 461.133 115.758 461.133 113.925V101.728H457.896V99.9206H461.133V94.5377H463.316V99.9206H468.284V101.728H463.316V113.849C463.316 115.178 463.569 116.153 464.069 116.767C464.569 117.38 465.348 117.689 466.403 117.689C467.182 117.689 468.02 117.463 468.924 117.011V118.894C468.096 119.346 467.155 119.571 466.101 119.571Z" fill="#1961AC"/>
<path d="M477.377 119.684C475.544 119.684 474.077 119.184 472.974 118.178C471.871 117.173 471.317 115.833 471.317 114.15C471.317 112.016 472.213 110.386 474.009 109.256C475.804 108.127 478.405 107.563 481.818 107.563H482.647C482.921 107.563 483.184 107.578 483.437 107.6V107.45C483.437 105.391 483.023 103.866 482.195 102.876C481.367 101.886 480.098 101.389 478.393 101.389C476.436 101.389 474.581 101.98 472.823 103.158V101.125C474.554 99.9961 476.474 99.4315 478.582 99.4315C480.84 99.4315 482.578 100.102 483.794 101.445C485.01 102.79 485.62 104.713 485.62 107.224V119.195H483.7L483.55 116.371C482.974 117.399 482.127 118.209 481.009 118.799C479.891 119.39 478.683 119.684 477.377 119.684ZM477.716 117.877C478.796 117.877 479.774 117.603 480.652 117.049C481.529 116.496 482.213 115.795 482.703 114.941C483.192 114.087 483.437 113.172 483.437 112.193V109.407C482.985 109.381 482.345 109.37 481.517 109.37C478.909 109.37 476.918 109.757 475.552 110.536C474.186 111.316 473.5 112.456 473.5 113.962C473.5 115.14 473.885 116.089 474.649 116.805C475.412 117.519 476.436 117.877 477.716 117.877Z" fill="#1961AC"/>
<path d="M381.953 105.564H192.095V107.22H381.953V105.564Z" fill="#D3242D"/>
</g>
<defs>
<clipPath id="clip0_2612_114">
<rect width="486.557" height="120" fill="white"/>
</clipPath>
</defs>
</svg>

<svg xmlns="http://www.w3.org/2000/svg" width="487" height="120" fill="none" viewBox="0 0 487 120"><g clip-path="url(#a)"><path fill="#1961ac" d="M192.103 16.803h19.169q14.958 0 23.424 8.018 8.464 8.018 8.465 22.176 0 9.407-4.076 16.262-4.076 6.854-11.465 10.439t-17.241 3.584h-18.272V16.806zm14.065 12.004v36.466h5.107q8.42-.001 12.943-4.705t4.524-13.484c0-5.854-1.449-10.51-4.343-13.62q-4.345-4.66-12.676-4.66h-5.555zM271.449 78.441q-11.468 0-17.916-6.539-6.447-6.539-6.446-18.1 0-7.435 2.867-12.99 2.868-5.554 7.881-8.511c3.343-1.973 7.166-2.955 11.465-2.955q9.405 0 14.779 6.18 5.375 6.183 5.375 17.023v5.824h-29.202q2.06 9.498 13.078 9.498c4.238 0 8.631-1.043 13.166-3.136v10.484q-6.72 3.226-15.047 3.226zm-2.778-38.973q-7.346 0-8.6 9.855h16.838q-.179-4.75-2.329-7.303c-1.434-1.701-3.402-2.552-5.913-2.552zM315.224 78.174q-8.244-.002-12.451-4.254-4.21-4.253-4.211-12.678v-20.34h-7.166V30.51h7.166V18.323h13.617V30.51h9.853v10.393h-9.853v19.082q0 3.761 1.524 5.556c1.016 1.198 2.597 1.792 4.746 1.792q2.508.001 4.659-.895V76.92q-4.3 1.254-7.881 1.254zM350.176 78.441q-11.466 0-17.914-6.539-6.45-6.539-6.451-18.1 0-7.435 2.868-12.99 2.868-5.554 7.881-8.511c3.342-1.973 7.166-2.955 11.464-2.955q9.406 0 14.78 6.18 5.374 6.183 5.374 17.023v5.824h-29.202q2.06 9.498 13.078 9.498 6.36.002 13.17-3.136v10.484q-6.72 3.226-15.048 3.226zm-2.777-38.973q-7.346 0-8.6 9.855h16.839q-.18-4.75-2.33-7.303c-1.434-1.701-3.402-2.552-5.913-2.552zM395.491 78.441q-7.345 0-12.676-3.046-5.33-3.044-8.152-8.556-2.822-5.51-2.822-12.855c0-4.898 1.042-9.302 3.135-13.037q3.133-5.6 8.6-8.601 5.462-3 12.359-3 6.448-.001 11.107 2.42v11.019q-4.302-2.42-9.405-2.421-5.555.002-8.777 3.539-3.225 3.54-3.226 9.9c0 4.239 1.088 7.495 3.271 9.946q3.268 3.675 8.821 3.674c3.704 0 7.046-.866 9.854-2.598v10.932q-5.103 2.688-12.093 2.688zM434.502 78.174q-8.244-.002-12.451-4.254-4.211-4.253-4.211-12.678v-20.34h-7.167V30.51h7.167V18.323h13.616V30.51h9.854v10.393h-9.854v19.082q0 3.761 1.525 5.556c1.016 1.198 2.597 1.792 4.746 1.792q2.507.001 4.659-.895V76.92q-4.301 1.254-7.881 1.254zM461.355 78.441q-6.987 0-11.152-3.764-4.166-3.762-4.166-9.946 0-7.974 6.18-12.407 6.182-4.434 17.467-4.435a43 43 0 0 1 3.945.18c-.302-2.687-1.269-4.671-2.91-5.958q-2.465-1.927-7.211-1.928-6.538-.001-13.256 3.494V33.016q7.167-3.672 15.496-3.674 9.939 0 15.363 5.285 5.42 5.286 5.419 15.14v27.507h-11.106l-.715-4.928c-1.374 1.913-3.241 3.403-5.601 4.48s-4.941 1.611-7.749 1.611zm4.031-9.317c2.33 0 4.298-.835 5.913-2.507q2.418-2.505 2.42-6.181v-3.941q-.809-.09-1.656-.09h-1.746q-5.467 0-8.465 1.746-3.001 1.746-3 4.973-.002 2.779 1.792 4.389c1.193 1.076 2.778 1.61 4.746 1.61z"/><path fill="#bad0e6" d="M98.312 54.985c-5.879-5.88-5.879-10.092 0-15.972L132.908 4.41c-5.879-5.88-15.412-5.88-21.291 0L79.683 36.351c-5.88 5.88-5.88 15.415 0 21.295l31.934 31.942c5.879 5.88 15.412 5.88 21.291 0z"/><path fill="#1961ac" d="M146.216 39.013c5.879 5.88 5.879 10.092 0 15.972l-34.595 34.603c5.879 5.88 15.412 5.88 21.291 0l31.935-31.942c5.878-5.88 5.878-15.415 0-21.295L132.912 4.41c-5.879-5.88-15.412-5.88-21.291 0z"/><path fill="#f9cfcd" d="M60.676 54.985c-5.879-5.88-5.879-10.092 0-15.972L95.272 4.41c-5.88-5.88-15.413-5.88-21.292 0L42.046 36.351c-5.88 5.88-5.88 15.415 0 21.295L73.98 89.588c5.879 5.88 15.413 5.88 21.292 0z"/><path fill="#eb5e57" d="M108.58 39.013c5.878 5.88 5.878 10.092 0 15.972L73.984 89.588c5.879 5.88 15.412 5.88 21.291 0l31.935-31.942c5.879-5.88 5.879-15.415 0-21.295L95.275 4.41c-5.879-5.88-15.412-5.88-21.29 0z"/><path fill="#f18e89" d="M23.04 54.985c-5.88-5.88-5.88-10.092 0-15.972L57.634 4.41c-5.879-5.88-15.412-5.88-21.291 0L4.409 36.351c-5.879 5.88-5.879 15.415 0 21.295l31.935 31.942c5.879 5.88 15.412 5.88 21.29 0z"/><path fill="#d3242d" d="M70.943 39.013c5.879 5.88 5.879 10.092 0 15.972L36.348 89.588c5.878 5.88 15.412 5.88 21.29 0l31.935-31.942c5.879-5.88 5.879-15.415 0-21.295L57.64 4.41c-5.88-5.88-15.413-5.88-21.292 0z"/><path fill="#1961ac" d="M407.9 93.785h2.296l9.334 25.41h-2.296l-2.672-7.454h-11.066l-2.634 7.454h-2.258zm-3.726 16.037h9.71l-4.855-13.703zM422.431 91.15h2.183v28.045h-2.183zM437.001 119.684q-4.026 0-6.38-2.748-2.353-2.75-2.352-7.453 0-3.089 1.035-5.365 1.033-2.277 2.879-3.482 1.845-1.204 4.253-1.204 3.461 0 5.439 2.484 1.975 2.485 1.975 6.851v1.318h-13.436q.188 3.574 1.957 5.59t4.818 2.014c2.032 0 3.925-.576 5.532-1.732v2.071q-2.445 1.654-5.72 1.656m-.678-18.333q-2.597 0-4.121 1.807t-1.75 5.12h11.328c-.048-2.184-.553-3.885-1.505-5.101q-1.428-1.825-3.952-1.826M447.287 99.92h1.919l.151 2.974q.678-1.579 1.976-2.465 1.297-.886 2.916-.885c.651 0 1.231.087 1.732.264v1.995q-.752-.264-1.769-.263-2.145.001-3.444 1.731c-.866 1.156-1.298 2.684-1.298 4.593v11.331h-2.183zM466.101 119.571q-2.445 0-3.707-1.449-1.26-1.449-1.261-4.197v-12.197h-3.237v-1.807h3.237v-5.383h2.183v5.383h4.968v1.807h-4.968v12.121q.001 1.995.753 2.918.75.92 2.334.922 1.167 0 2.521-.678v1.883q-1.242.677-2.823.677M477.377 119.684q-2.749.002-4.403-1.506c-1.103-1.005-1.657-2.345-1.657-4.028q-.001-3.2 2.692-4.894 2.691-1.693 7.809-1.693h.829q.41.002.79.037v-.15q0-3.089-1.242-4.574-1.243-1.486-3.802-1.487-2.934.001-5.57 1.769v-2.033q2.597-1.694 5.759-1.694 3.387 0 5.212 2.014c1.216 1.345 1.826 3.268 1.826 5.779v11.971h-1.92l-.15-2.824q-.864 1.543-2.541 2.428a7.64 7.64 0 0 1-3.632.885m.339-1.807q1.62.001 2.936-.828 1.316-.828 2.051-2.108a5.44 5.44 0 0 0 .734-2.748v-2.786a36 36 0 0 0-1.92-.037q-3.914-.001-5.965 1.166-2.05 1.168-2.052 3.426.001 1.768 1.149 2.843 1.146 1.072 3.067 1.072"/><path fill="#d3242d" d="M381.953 105.564H192.095v1.656h189.858z"/></g><defs><clipPath id="a"><path fill="#fff" d="M0 0h486.557v120H0z"/></clipPath></defs></svg>
